X: 12597
T: Farewell To The Taliban
R: reel
M: 4/4
K: Eminor
|:FBBd cBcd|cBcd cBAB|FBBd cBcd|efed cBAB|
FBBd cBcd|cBcd cBAB|FBBd cBcd|efed cBAB:|
|:fBBf edeg|fBBf edc2|fBBf edef|gfed cBAB|
fBBf edeg|fBBf edc2|fBBf edef|gfed cBAB:|

